images/logo.svg

<svg width="265" height="41" viewBox="0 0 265 41" fill="none" xmlns="http://www.w3.org/2000/svg">
<g clip-path="url(#clip0)">
<rect width="265" height="41" fill="white"/>
<path fill-rule="evenodd" clip-rule="evenodd" d="M27.7888 1.43736H24.219C23.7193 1.43736 23.313 1.84332 23.313 2.34507V26.144L23.2965 26.2157C23.2965 31.1629 19.282 35.1887 14.347 35.1887C9.412 35.1887 5.39748 31.1629 5.39748 26.2157L5.38098 26.144V2.34507C5.38098 1.84332 4.97471 1.43736 4.47496 1.43736H0.905193C0.404752 1.43736 -0.000137329 1.84332 -0.000137329 2.34507V26.2157C-0.000137329 34.0439 6.2705 40.4268 14.039 40.5922C14.1414 40.5949 14.2439 40.6005 14.347 40.6005C14.4501 40.6005 14.5525 40.5949 14.6556 40.5922C22.4235 40.4268 28.6941 34.0439 28.6941 26.2157V2.34507C28.6941 1.84332 28.2892 1.43736 27.7888 1.43736Z" fill="black"/>
<path fill-rule="evenodd" clip-rule="evenodd" d="M81.5404 20.5946H63.3352C62.8307 20.5946 62.4225 20.9944 62.4225 21.487V24.7019C62.4225 25.1952 62.8307 25.5949 63.3352 25.5949H72.7753C72.539 26.7779 72.1751 27.8782 71.6907 28.8756C71.0801 30.1304 70.2533 31.2192 69.2338 32.1149C68.2143 33.0106 66.9634 33.7173 65.5114 34.2153C64.0442 34.7194 62.3497 34.9755 60.475 34.9755C58.0285 34.9755 55.8586 34.5554 54.0275 33.7281C52.1896 32.8981 50.6399 31.7917 49.4167 30.4407C48.1872 29.0815 47.2446 27.5069 46.6133 25.7596C45.977 23.9993 45.6548 22.1449 45.6548 20.2464C45.6548 18.2842 45.9937 16.3722 46.6625 14.5625C47.3292 12.7609 48.2911 11.1585 49.5206 9.79937C50.7459 8.44564 52.2651 7.34192 54.0359 6.52142C55.7962 5.7043 57.8144 5.29032 60.0328 5.29032C61.428 5.29032 62.7565 5.46242 63.9839 5.80119C65.2093 6.13928 66.3036 6.59933 67.2358 7.16779C68.1499 7.72541 68.9296 8.40431 69.5506 9.18551C70.1729 9.96875 70.6283 10.7994 70.9048 11.6545C71.0247 12.0258 71.3767 12.2785 71.7746 12.2785H75.4075C75.6827 12.2785 75.9433 12.1559 76.1165 11.9465C76.2912 11.7371 76.357 11.4621 76.2995 11.1985C75.9648 9.67199 75.3209 8.22408 74.3874 6.89203C73.4573 5.56947 72.2652 4.4041 70.8466 3.42776C69.4362 2.45684 67.7895 1.69122 65.9515 1.15054C64.1226 0.613923 62.1141 0.340874 59.9829 0.340874C56.9328 0.340874 54.1606 0.901879 51.7391 2.00763C49.3307 3.10796 47.2377 4.60058 45.5203 6.44214C43.8015 8.2837 42.4757 10.4315 41.5761 12.8253C40.6821 15.2089 40.2295 17.7225 40.2295 20.2972C40.2295 22.8204 40.6648 25.2819 41.5242 27.6126C42.3877 29.9576 43.6879 32.0722 45.3907 33.8989C47.0949 35.7276 49.2164 37.2127 51.6975 38.3131C54.1828 39.4161 57.0922 39.9751 60.3454 39.9751C62.9187 39.9751 65.2772 39.6078 67.3557 38.8863C69.4459 38.1586 71.2887 37.1125 72.8349 35.7763C74.3804 34.4402 75.646 32.8202 76.5989 30.9631C77.434 29.3349 78.0183 27.532 78.3426 25.5949H81.5404C82.0449 25.5949 82.4531 25.1952 82.4531 24.7019V21.487C82.4531 20.9944 82.0449 20.5946 81.5404 20.5946Z" fill="black"/>
<path fill-rule="evenodd" clip-rule="evenodd" d="M130.036 2.05H126.52C126.152 2.05 125.82 2.26183 125.675 2.58901C125.675 2.58901 113.165 29.5746 112.907 30.2182C112.798 30.49 112.604 30.6493 112.393 30.6412C112.182 30.6493 111.988 30.49 111.879 30.2182C111.621 29.5746 99.1116 2.58901 99.1116 2.58901C98.9659 2.26183 98.6348 2.05 98.2668 2.05H94.75C94.2439 2.05 93.8327 2.44802 93.8327 2.93846V39.0859C93.8327 39.577 94.2439 39.975 94.75 39.975H98.3713C98.8781 39.975 99.2894 39.577 99.2894 39.0859V17.5599C99.2894 17.1011 99.8484 17.1099 99.9669 17.4007C100.27 18.1468 110.074 39.4286 110.074 39.4286C110.215 39.7591 110.551 39.975 110.921 39.975H113.866C114.236 39.975 114.571 39.7591 114.712 39.4286C114.712 39.4286 124.516 18.1468 124.82 17.4007C124.938 17.1099 125.497 17.1011 125.497 17.5599V39.0859C125.497 39.577 125.909 39.975 126.415 39.975H130.036C130.543 39.975 130.953 39.577 130.953 39.0859V2.93846C130.953 2.44802 130.543 2.05 130.036 2.05Z" fill="black"/>
<path fill-rule="evenodd" clip-rule="evenodd" d="M176.103 26.626C175.451 28.4083 174.503 30.008 173.287 31.3816C172.081 32.7476 170.573 33.865 168.812 34.7028C167.059 35.5351 165.068 35.9574 162.893 35.9574C160.684 35.9574 158.69 35.5358 156.966 34.7048C155.227 33.867 153.738 32.7497 152.536 31.3836C151.328 30.0094 150.386 28.4089 149.734 26.626C149.08 24.837 148.747 22.944 148.747 20.9999C148.747 19.0543 149.08 17.1518 149.734 15.3457C150.386 13.5464 151.328 11.9384 152.536 10.5655C153.738 9.19877 155.226 8.08625 156.963 7.25869C158.687 6.43455 160.684 6.01701 162.893 6.01701C165.085 6.01701 167.082 6.43523 168.826 7.25937C170.578 8.08898 172.08 9.2015 173.287 10.5676C174.503 11.9398 175.45 13.547 176.102 15.3457C176.757 17.1525 177.09 19.055 177.09 20.9999C177.09 22.9434 176.757 24.8363 176.103 26.626ZM177.249 7.13705C175.568 5.30357 173.497 3.81178 171.091 2.70267C168.675 1.58946 165.917 1.025 162.893 1.025C159.872 1.025 157.113 1.58946 154.692 2.70267C152.28 3.81178 150.203 5.30289 148.517 7.13568C146.831 8.96916 145.529 11.119 144.648 13.5259C143.772 15.9218 143.327 18.4372 143.327 20.9999C143.327 23.5803 143.772 26.0992 144.648 28.4868C145.53 30.8848 146.831 33.034 148.516 34.875C150.201 36.7173 152.28 38.2139 154.692 39.323C157.113 40.4355 159.872 41 162.893 41C165.917 41 168.675 40.4355 171.091 39.3223C173.497 38.2139 175.57 36.7173 177.25 34.8743C178.927 33.036 180.236 30.8848 181.144 28.4821C182.05 26.0841 182.51 23.5666 182.51 20.9999C182.51 18.4338 182.05 15.917 181.144 13.5177C180.236 11.1136 178.925 8.96779 177.249 7.13705Z" fill="black"/>
<path fill-rule="evenodd" clip-rule="evenodd" d="M221.821 2.05H218.259C217.76 2.05 217.355 2.44802 217.355 2.93846V29.1867C217.355 29.3985 217.13 29.5227 216.953 29.2218C216.777 28.9209 200.505 2.47838 200.505 2.47838C200.341 2.21258 200.049 2.05 199.733 2.05H195.786C195.288 2.05 194.883 2.44802 194.883 2.93846V39.0859C194.883 39.577 195.288 39.975 195.786 39.975H199.347C199.846 39.975 200.25 39.577 200.25 39.0859V12.9253C200.25 12.5368 200.518 12.5644 200.621 12.731C200.722 12.8977 217.101 39.546 217.101 39.546C217.265 39.8124 217.558 39.975 217.874 39.975H221.821C222.32 39.975 222.724 39.577 222.724 39.0859V2.93846C222.724 2.44802 222.32 2.05 221.821 2.05Z" fill="black"/>
<path fill-rule="evenodd" clip-rule="evenodd" d="M246.964 20.6589L264.26 2.98316C264.512 2.72486 264.586 2.33878 264.447 2.00395C264.308 1.66911 263.982 1.45181 263.622 1.45181H259.106C258.868 1.45181 258.639 1.5468 258.471 1.71695L243 17.3796V2.35176C243 1.8543 242.6 1.45181 242.106 1.45181H238.579C238.086 1.45181 237.685 1.8543 237.685 2.35176V38.9668C237.685 39.4643 238.086 39.8668 238.579 39.8668H242.106C242.6 39.8668 243 39.4643 243 38.9668V23.9389L258.471 39.6016C258.639 39.7718 258.868 39.8668 259.106 39.8668H263.622C263.982 39.8668 264.308 39.6488 264.447 39.3146C264.586 38.9805 264.512 38.5937 264.26 38.3347L246.964 20.6589Z" fill="black"/>
</g>
<defs>
<clipPath id="clip0">
<rect width="265" height="41" fill="white"/>
</clipPath>
</defs>
</svg>

<svg width="265" height="41" fill="none" xmlns="http://www.w3.org/2000/svg"><g clip-path="url(#clip0)"><path fill="#fff" d="M0 0h265v41H0z"/><path fill-rule="evenodd" clip-rule="evenodd" d="M27.789 1.437h-3.57c-.5 0-.906.406-.906.908v23.799l-.016.072c0 4.947-4.015 8.973-8.95 8.973s-8.95-4.026-8.95-8.973l-.016-.072V2.345a.907.907 0 00-.906-.908H.905c-.5 0-.905.406-.905.908v23.87c0 7.829 6.27 14.212 14.039 14.377.102.003.205.008.308.008.103 0 .206-.005.309-.008 7.768-.165 14.038-6.548 14.038-14.376V2.346a.906.906 0 00-.905-.909zM81.54 20.595H63.335c-.504 0-.913.4-.913.892v3.215c0 .493.409.893.913.893h9.44a13.594 13.594 0 01-1.084 3.28 10.252 10.252 0 01-2.457 3.24c-1.02.896-2.27 1.602-3.723 2.1-1.467.504-3.161.76-5.036.76-2.447 0-4.616-.42-6.447-1.247-1.838-.83-3.388-1.936-4.611-3.287a14.06 14.06 0 01-2.804-4.681 16.166 16.166 0 01-.958-5.514c0-1.962.339-3.874 1.008-5.683.666-1.802 1.628-3.405 2.858-4.764 1.225-1.353 2.744-2.457 4.515-3.278 1.76-.817 3.778-1.23 5.997-1.23 1.395 0 2.724.171 3.95.51 1.226.338 2.32.798 3.253 1.367a8.769 8.769 0 012.315 2.018c.622.783 1.077 1.613 1.354 2.469a.91.91 0 00.87.623h3.632a.92.92 0 00.71-.332.874.874 0 00.182-.748 11.935 11.935 0 00-1.912-4.306c-.93-1.323-2.122-2.488-3.54-3.464-1.41-.971-3.057-1.737-4.895-2.277-1.83-.537-3.838-.81-5.97-.81-3.05 0-5.821.56-8.243 1.667-2.408 1.1-4.501 2.593-6.219 4.434a19.196 19.196 0 00-3.944 6.383 21.2 21.2 0 00-1.346 7.472c0 2.523.435 4.985 1.294 7.316a18.59 18.59 0 003.867 6.286c1.704 1.829 3.825 3.314 6.306 4.414 2.486 1.103 5.395 1.662 8.648 1.662 2.574 0 4.932-.367 7.01-1.089 2.09-.727 3.934-1.774 5.48-3.11a15.945 15.945 0 003.764-4.813c.835-1.628 1.42-3.431 1.744-5.368h3.197c.505 0 .913-.4.913-.893v-3.215a.903.903 0 00-.913-.892zM130.036 2.05h-3.516a.92.92 0 00-.845.539s-12.51 26.986-12.768 27.63c-.109.271-.303.43-.514.422-.211.008-.405-.151-.514-.423-.258-.643-12.767-27.629-12.767-27.629a.92.92 0 00-.845-.539H94.75c-.506 0-.917.398-.917.888v36.148c0 .491.41.889.917.889h3.621c.507 0 .918-.398.918-.89V17.56c0-.459.56-.45.678-.16.303.747 10.107 22.029 10.107 22.029.141.33.477.546.847.546h2.945c.37 0 .705-.216.846-.546 0 0 9.804-21.282 10.108-22.028.118-.291.677-.3.677.159v21.526c0 .491.412.889.918.889h3.621a.903.903 0 00.917-.89V2.939c0-.49-.41-.888-.917-.888zm46.067 24.576a14.81 14.81 0 01-2.816 4.756c-1.206 1.366-2.714 2.483-4.475 3.32-1.753.833-3.744 1.255-5.919 1.255-2.209 0-4.203-.421-5.927-1.252-1.739-.838-3.228-1.955-4.43-3.321a14.93 14.93 0 01-2.802-4.758 16.334 16.334 0 01-.987-5.626c0-1.946.333-3.848.987-5.654.652-1.8 1.594-3.408 2.802-4.78 1.202-1.367 2.69-2.48 4.427-3.307 1.724-.824 3.721-1.242 5.93-1.242 2.192 0 4.189.418 5.933 1.242 1.752.83 3.254 1.942 4.461 3.309a14.724 14.724 0 012.815 4.778c.655 1.806.988 3.709.988 5.654a16.34 16.34 0 01-.987 5.626zm1.146-19.489c-1.681-1.833-3.752-3.325-6.158-4.434-2.416-1.114-5.174-1.678-8.198-1.678-3.021 0-5.78.564-8.201 1.678-2.412 1.109-4.489 2.6-6.175 4.433a19.057 19.057 0 00-3.869 6.39A21.702 21.702 0 00143.327 21c0 2.58.445 5.1 1.321 7.487a19.241 19.241 0 003.868 6.388c1.685 1.842 3.764 3.339 6.176 4.448 2.421 1.112 5.18 1.677 8.201 1.677 3.024 0 5.782-.565 8.198-1.678 2.406-1.108 4.479-2.605 6.159-4.448 1.677-1.838 2.986-3.99 3.894-6.392A21.097 21.097 0 00182.51 21c0-2.566-.46-5.083-1.366-7.482-.908-2.404-2.219-4.55-3.895-6.381zm44.572-5.087h-3.562a.897.897 0 00-.904.888v26.249c0 .211-.225.336-.402.035-.176-.301-16.448-26.744-16.448-26.744a.906.906 0 00-.772-.428h-3.947a.896.896 0 00-.903.888v36.148c0 .491.405.889.903.889h3.561a.896.896 0 00.903-.89v-26.16c0-.388.268-.36.371-.194.101.167 16.48 26.815 16.48 26.815a.907.907 0 00.773.429h3.947a.896.896 0 00.903-.89V2.939a.896.896 0 00-.903-.888zm25.143 18.609L264.26 2.983a.906.906 0 00.187-.979.894.894 0 00-.825-.552h-4.516a.892.892 0 00-.635.265L243 17.38V2.352c0-.498-.4-.9-.894-.9h-3.527a.897.897 0 00-.894.9v36.615c0 .497.401.9.894.9h3.527a.897.897 0 00.894-.9V23.939l15.471 15.663c.168.17.397.265.635.265h4.516c.36 0 .686-.218.825-.552a.908.908 0 00-.187-.98l-17.296-17.676z" fill="#000"/></g><defs><clipPath id="clip0"><path fill="#fff" d="M0 0h265v41H0z"/></clipPath></defs></svg>
